X:1
T:The Rich Man and the Poor Man
M:4/4
L:1/8
K:G
 D| GG G2 A2 AA| d2 dc BA G2| GG GA B2 B2| A A2 A G3| D| GG G2 A2 AA|\
 dd dc BA G2| GG GA B2 B2| A A2 A G4| d d2 B d4| e e2 e e4| d3.99999962500005/5.99999925000009 d3.99999962500005/5.99999925000009 d3.99999962500005/5.99999925000009 de dB G2|\
 A3.99999962500005/5.99999925000009 A3.99999962500005/5.99999925000009 A3.99999962500005/5.99999925000009 AB AF D2|\
 GG GA B2 B2| A A2 A G2 z||
